images/portfolio__logo_image-6.svg

<svg width="277" height="52" viewBox="0 0 277 52" fill="none" xmlns="http://www.w3.org/2000/svg">
<path d="M92.6286 1.90243C90.0921 5.07316 91.614 8.2439 95.7994 8.2439C98.4628 8.2439 99.7311 7.60975 99.9847 5.96097C100.492 3.29756 98.2091 -5.84126e-06 95.7994 -5.84126e-06C94.9116 -5.84126e-06 93.5164 0.887799 92.6286 1.90243Z" fill="white"/>
<path d="M81.2141 14.3317C81.2141 28.6634 79.5653 32.9756 74.3653 32.9756C70.8141 32.9756 67.2628 29.2976 67.2628 25.6195C67.2628 22.0683 71.9555 18.8976 75.7604 19.7854C78.297 20.4195 78.6775 20.1658 78.6775 16.6146C78.6775 12.8097 78.4238 12.6829 73.4775 12.6829C66.7555 12.6829 59.6531 19.1512 59.6531 25.239C59.6531 30.8195 62.8238 36.4 67.2628 38.6829C71.9555 41.0927 75.3799 41.0927 80.8336 38.4293C87.175 35.3854 88.8238 30.6927 88.8238 14.5854V1.26829H85.0189H81.2141V14.3317Z" fill="white"/>
<path d="M247.36 19.4049C247.36 37.7952 248.248 39.3171 258.902 39.3171C266.004 39.3171 266.385 39.1903 266.385 36.2732C266.385 33.483 265.751 33.1025 261.058 32.722L255.604 32.3415L255.224 25.7464C254.843 19.5318 255.097 19.0245 257.634 19.4049C259.79 19.5318 260.424 18.8976 260.678 16.1074C261.058 13.1903 260.678 12.683 258.014 12.683C255.478 12.683 254.97 12.0488 254.97 8.87811C254.97 5.45372 254.59 5.07323 251.165 5.07323H247.36V19.4049ZM252.687 19.2781C251.546 20.4196 251.165 19.7854 251.292 16.361C251.292 12.3025 251.419 12.1757 252.687 14.9659C253.702 17.122 253.702 18.2635 252.687 19.2781ZM252.941 33.7367C253.321 34.7513 253.195 35.2586 252.434 34.8781C251.673 34.4976 251.165 33.6098 251.165 32.8488C251.165 31.0732 252.053 31.4537 252.941 33.7367Z" fill="white"/>
<path d="M6.51167 14.4586C-0.844423 18.5171 -2.23954 29.5513 3.72143 35.6391C6.76533 38.683 8.54094 39.3171 13.2336 39.3171C18.8141 39.3171 19.0678 39.1903 19.0678 35.5123C19.0678 31.961 18.8141 31.7074 15.897 32.4684C9.30192 34.1171 4.98972 25.6196 9.93606 21.1806C13.1068 18.3903 16.9117 18.5171 19.5751 21.4342C21.3507 23.3367 21.7312 25.6196 21.3507 31.5806L20.9702 39.3171H25.1556H29.2141V31.0732C29.2141 21.4342 27.4385 16.9952 22.7458 14.4586C18.3068 12.3025 10.5702 12.1757 6.51167 14.4586Z" fill="white"/>
<path d="M32.7653 23.7173C33.2726 36.2734 34.6678 38.81 41.3897 40.0783C46.5897 40.9661 54.1995 38.6831 55.8482 35.5124C56.6092 34.2441 57.1165 28.5368 57.1165 22.9563V12.6831H53.058H48.8726L49.2531 19.6587C50.0141 30.1856 48.8726 33.2295 44.6873 32.7222C41.3897 32.3417 41.2629 32.2148 40.8824 22.449L40.5019 12.6831H36.4434H32.3848L32.7653 23.7173Z" fill="white"/>
<path d="M91.9946 26.0001V39.3171H96.18H100.239V26.0001V12.683H96.18H91.9946V26.0001Z" fill="white"/>
<path d="M109.243 14.4585C105.185 16.7415 102.902 21.1805 102.775 26.761C102.648 39.6976 121.165 45.1512 129.409 34.6244C134.102 28.6634 131.946 17.8829 125.478 14.4585C121.038 12.3024 113.302 12.1756 109.243 14.4585ZM122.307 21.0537C124.717 23.3366 124.97 29.2976 122.814 31.4537C121.926 32.3415 119.517 32.9756 117.36 32.9756C112.541 32.9756 110.385 30.9464 110.385 26.5073C110.385 22.1951 113.429 19.0244 117.36 19.0244C119.009 19.0244 121.292 19.9122 122.307 21.0537Z" fill="white"/>
<path d="M138.414 16.6146C135.243 19.7854 134.482 21.561 134.482 26.2537C134.482 30.8195 135.243 32.5951 138.16 35.5122C144.756 42.1073 152.239 42.2341 152.239 35.639C152.239 32.5951 151.731 32.0878 149.829 32.5951C142.726 34.4976 139.048 24.8585 145.263 20.8C148.18 18.8976 148.687 18.8976 151.604 20.8C155.029 23.0829 155.536 25.8732 154.902 42.7415L154.521 52H159.214H163.907L163.146 36.6537C162.765 28.2829 161.878 20.2927 161.117 19.0244C158.834 14.839 154.395 12.6829 148.307 12.6829C143.234 12.6829 141.585 13.3171 138.414 16.6146Z" fill="white"/>
<path d="M166.19 22.1951C166.19 27.3951 166.824 33.1024 167.712 34.878C170.882 41.9804 186.863 41.9804 190.034 34.878C190.921 33.1024 191.556 27.3951 191.556 22.1951V12.6829H187.117H182.804L183.058 21.6878C183.312 29.1707 182.931 30.9463 181.156 32.2146C179.507 33.2292 178.238 33.2292 176.717 32.2146C174.814 31.0731 174.434 29.0439 174.56 21.6878V12.6829H170.375H166.19V22.1951Z" fill="white"/>
<path d="M197.897 16.2342C190.034 24.0976 194.219 38.0488 204.999 40.0781C210.707 41.0927 217.429 38.683 221.36 34.1171C225.546 29.0439 225.419 27.9025 220.346 27.9025C217.682 27.9025 215.78 28.7903 214.639 30.4391C212.356 34.2439 204.873 33.8634 202.336 29.9317C199.799 26 201.702 20.6732 206.014 19.5317C211.214 18.2635 212.482 20.2927 208.17 22.9561C204.746 25.1122 204.365 25.7464 205.507 28.0293C206.902 30.5659 207.029 30.5659 210.326 28.4098C212.229 27.1415 215.653 24.9854 217.809 23.5903C220.092 22.0683 221.995 20.2927 221.995 19.5317C221.995 16.2342 216.668 13.4439 209.312 12.9366C202.336 12.4293 201.575 12.683 197.897 16.2342ZM216.287 19.0244C216.668 19.6586 216.541 20.2927 215.78 20.2927C215.146 20.2927 214.131 19.6586 213.751 19.0244C213.37 18.2635 213.497 17.7561 214.258 17.7561C214.892 17.7561 215.907 18.2635 216.287 19.0244Z" fill="white"/>
<path d="M229.224 14.0781C226.18 15.8537 224.531 20.4196 226.053 23.083C226.687 24.3513 229.477 26.5074 232.141 27.9025C234.931 29.2976 237.214 31.0732 237.214 31.7074C237.214 32.4684 234.424 32.9757 230.873 32.9757C224.912 32.9757 224.531 33.2293 224.531 36.1464C224.531 39.1903 224.912 39.3171 232.014 39.3171C241.273 39.3171 243.429 38.5562 244.951 34.6245C246.473 30.4391 244.57 27.1415 238.482 24.0976C231.887 20.8001 232.014 19.0245 238.863 19.0245C243.682 19.0245 244.19 18.7708 244.19 15.8537C244.19 12.9367 243.809 12.683 237.848 12.683C234.424 12.683 230.492 13.3171 229.224 14.0781Z" fill="white"/>
<path d="M270.063 33.7366C268.16 36.0195 269.809 39.6976 273.107 40.3317C276.278 40.9659 278.18 36.1464 275.77 33.7366C273.36 31.2 272.219 31.2 270.063 33.7366ZM273.995 34.3707C273.995 35.0049 273.487 35.2585 272.726 34.8781C272.092 34.4976 271.458 35.0049 271.458 36.0195C271.458 37.2878 272.219 37.6683 273.741 37.161C275.517 36.5268 275.643 36.7805 274.375 38.1756C272.346 40.3317 269.429 37.922 270.57 35.0049C271.458 32.722 273.995 32.2146 273.995 34.3707Z" fill="white"/>
</svg>

<svg width="277" height="52" fill="none" xmlns="http://www.w3.org/2000/svg"><path d="M92.629 1.902c-2.537 3.171-1.015 6.342 3.17 6.342 2.664 0 3.932-.634 4.186-2.283C100.492 3.298 98.209 0 95.799 0c-.887 0-2.283.888-3.17 1.902zm-11.415 12.43c0 14.331-1.649 18.644-6.849 18.644-3.55 0-7.102-3.678-7.102-7.357 0-3.55 4.692-6.721 8.497-5.834 2.537.634 2.917.38 2.917-3.17 0-3.805-.253-3.932-5.2-3.932-6.722 0-13.824 6.468-13.824 12.556 0 5.58 3.17 11.161 7.61 13.444 4.692 2.41 8.117 2.41 13.57-.254 6.342-3.044 7.99-7.736 7.99-23.844V1.268h-7.609v13.064zm166.146 5.073c0 18.39.888 19.912 11.542 19.912 7.102 0 7.483-.127 7.483-3.044 0-2.79-.634-3.17-5.327-3.551l-5.454-.38-.38-6.596c-.381-6.214-.127-6.721 2.41-6.341 2.156.127 2.79-.507 3.044-3.298.38-2.917 0-3.424-2.664-3.424-2.536 0-3.044-.634-3.044-3.805 0-3.424-.38-3.805-3.805-3.805h-3.805v14.332zm5.327-.127c-1.141 1.142-1.522.507-1.395-2.917 0-4.059.127-4.185 1.395-1.395 1.015 2.156 1.015 3.298 0 4.312zm.254 14.459c.38 1.014.254 1.522-.507 1.141-.761-.38-1.269-1.268-1.269-2.03 0-1.775.888-1.394 1.776.889zM6.512 14.459c-7.356 4.058-8.752 15.092-2.79 21.18 3.043 3.044 4.819 3.678 9.512 3.678 5.58 0 5.834-.127 5.834-3.805 0-3.551-.254-3.805-3.171-3.044-6.595 1.65-10.907-6.848-5.96-11.287 3.17-2.79 6.975-2.664 9.638.253 1.776 1.903 2.156 4.186 1.776 10.147l-.38 7.736h8.242v-8.244c0-9.639-1.775-14.078-6.468-16.614-4.44-2.156-12.176-2.283-16.234 0zm26.253 9.258c.508 12.556 1.903 15.093 8.625 16.361 5.2.888 12.81-1.395 14.458-4.566.761-1.268 1.269-6.975 1.269-12.556V12.683h-8.244l.38 6.976c.761 10.527-.38 13.57-4.566 13.063-3.297-.38-3.424-.507-3.805-10.273l-.38-9.766h-8.117l.38 11.034zM91.995 26v13.317h8.244V12.683h-8.244V26zm17.248-11.541c-4.058 2.282-6.341 6.721-6.468 12.302-.127 12.937 18.39 18.39 26.634 7.863 4.693-5.96 2.537-16.741-3.931-20.166-4.44-2.156-12.176-2.282-16.235 0zm13.064 6.595c2.41 2.283 2.663 8.244.507 10.4-.888.888-3.297 1.522-5.454 1.522-4.819 0-6.975-2.03-6.975-6.469 0-4.312 3.044-7.483 6.975-7.483 1.649 0 3.932.888 4.947 2.03zm16.107-4.439c-3.171 3.17-3.932 4.946-3.932 9.639 0 4.566.761 6.341 3.678 9.258 6.596 6.595 14.079 6.722 14.079.127 0-3.044-.508-3.551-2.41-3.044-7.103 1.903-10.781-7.736-4.566-11.795 2.917-1.902 3.424-1.902 6.341 0 3.425 2.283 3.932 5.073 3.298 21.942L154.521 52h9.386l-.761-15.346c-.381-8.371-1.268-16.361-2.029-17.63-2.283-4.185-6.722-6.341-12.81-6.341-5.073 0-6.722.634-9.893 3.932zm27.776 5.58c0 5.2.634 10.907 1.522 12.683 3.17 7.102 19.151 7.102 22.322 0 .887-1.776 1.522-7.483 1.522-12.683v-9.512h-8.752l.254 9.005c.254 7.483-.127 9.258-1.902 10.527-1.649 1.014-2.918 1.014-4.439 0-1.903-1.142-2.283-3.171-2.157-10.527v-9.005h-8.37v9.512zm31.707-5.961c-7.863 7.864-3.678 21.815 7.102 23.844 5.708 1.015 12.43-1.395 16.361-5.96 4.186-5.074 4.059-6.216-1.014-6.216-2.664 0-4.566.888-5.707 2.537-2.283 3.805-9.766 3.424-12.303-.507-2.537-3.932-.634-9.259 3.678-10.4 5.2-1.268 6.468.76 2.156 3.424-3.424 2.156-3.805 2.79-2.663 5.073 1.395 2.537 1.522 2.537 4.819.38 1.903-1.267 5.327-3.424 7.483-4.819 2.283-1.522 4.186-3.297 4.186-4.058 0-3.298-5.327-6.088-12.683-6.595-6.976-.508-7.737-.254-11.415 3.297zm18.39 2.79c.381.635.254 1.269-.507 1.269-.634 0-1.649-.634-2.029-1.269-.381-.76-.254-1.268.507-1.268.634 0 1.649.508 2.029 1.268z" fill="#fff"/><path d="M229.224 14.078c-3.044 1.776-4.693 6.342-3.171 9.005.634 1.268 3.424 3.424 6.088 4.82 2.79 1.395 5.073 3.17 5.073 3.804 0 .761-2.79 1.269-6.341 1.269-5.961 0-6.342.253-6.342 3.17 0 3.044.381 3.171 7.483 3.171 9.259 0 11.415-.76 12.937-4.693 1.522-4.185-.381-7.483-6.469-10.526-6.595-3.298-6.468-5.073.381-5.073 4.819 0 5.327-.254 5.327-3.171s-.381-3.171-6.342-3.171c-3.424 0-7.356.634-8.624 1.395zm40.839 19.659c-1.903 2.282-.254 5.96 3.044 6.595 3.171.634 5.073-4.186 2.663-6.595-2.41-2.537-3.551-2.537-5.707 0zm3.932.634c0 .634-.508.887-1.269.507-.634-.38-1.268.127-1.268 1.142 0 1.268.761 1.648 2.283 1.141 1.776-.634 1.902-.38.634 1.015-2.029 2.156-4.946-.254-3.805-3.171.888-2.283 3.425-2.79 3.425-.634z" fill="#fff"/></svg>
